earbuds-off-outline.svg

<svg fill="currentColor" viewBox="0 0 24 24"><path d="m22.11 21.46-3.61-3.61v-.01l-2.92-2.91-1.49-1.49h.01l-2.54-2.54L10 9.34l-3-3L6.66 6h.01l-.57-.56-3.71-3.71L1.11 3l1.44 1.43C2.19 5 2 5.58 2 6v5c0 1 1 3 3 3 .61 0 1.32-.28 2-.73V20c0 .55.45 1 1 1h1c.55 0 1-.45 1-1v-8.11l4.5 4.5V20c0 .55.45 1 1 1h2c.44 0 .8-.28.93-.68l2.41 2.41zM8 10.23 5.91 11.6c-.51.33-.83.4-.91.4-.7 0-1-.92-1-1V6.03c0-.03 0-.06.03-.11L8 9.89zm5.53.1-2.49-2.49C11.37 5.12 13.69 3 16.5 3 19.54 3 22 5.46 22 8.5c0 2.82-2.11 5.13-4.84 5.46l-2.49-2.49c.53.33 1.16.53 1.83.53 1.93 0 3.5-1.57 3.5-3.5S18.43 5 16.5 5 13 6.57 13 8.5c0 .67.2 1.3.53 1.83"/></svg>

<svg  viewBox="0 0 24 24" fill="currentColor"><path  d="M22.11 21.46L18.5 17.85V17.84L15.58 14.93L15.58 14.93L14.09 13.44L14.1 13.44L11.56 10.9L11.56 10.9L10 9.34V9.34L7 6.34L7 6.34L6.66 6L6.67 6L6.1 5.44L2.39 1.73L1.11 3L2.55 4.43C2.19 5 2 5.58 2 6V11C2 12 3 14 5 14C5.61 14 6.32 13.72 7 13.27V20C7 20.55 7.45 21 8 21H9C9.55 21 10 20.55 10 20V11.89L14.5 16.39V20C14.5 20.55 14.95 21 15.5 21H17.5C17.94 21 18.3 20.72 18.43 20.32L20.84 22.73L22.11 21.46M8 10.23L5.91 11.6C5.4 11.93 5.08 12 5 12C4.3 12 4 11.08 4 11L4 6.03C4 6 4 5.97 4.03 5.92L8 9.89V10.23M13.53 10.33L11.04 7.84C11.37 5.12 13.69 3 16.5 3C19.54 3 22 5.46 22 8.5C22 11.32 19.89 13.63 17.16 13.96L14.67 11.47C15.2 11.8 15.83 12 16.5 12C18.43 12 20 10.43 20 8.5S18.43 5 16.5 5 13 6.57 13 8.5C13 9.17 13.2 9.8 13.53 10.33Z"/></svg>
